exported-svg/more-vertical.svg

<svg height="24" viewBox="0 0 24 24" width="24" xmlns="http://www.w3.org/2000/svg"><path d="m12.5 14c-.8284271 0-1.5-.6715729-1.5-1.5s.6715729-1.5 1.5-1.5 1.5.6715729 1.5 1.5-.6715729 1.5-1.5 1.5zm0-8c-.8284271 0-1.5-.67157288-1.5-1.5s.6715729-1.5 1.5-1.5 1.5.67157288 1.5 1.5-.6715729 1.5-1.5 1.5zm0 16c-.8284271 0-1.5-.6715729-1.5-1.5s.6715729-1.5 1.5-1.5 1.5.6715729 1.5 1.5-.6715729 1.5-1.5 1.5z" fill-rule="evenodd"/></svg>

<?xml version="1.0" encoding="UTF-8"?>
<svg width="24px" height="24px" viewBox="0 0 24 24" version="1.1" xmlns="http://www.w3.org/2000/svg" xmlns:xlink="http://www.w3.org/1999/xlink">
    <!-- Generator: Sketch 55.2 (78181) - https://sketchapp.com -->
    <title>more-vertical</title>
    <desc>Created with Sketch.</desc>
    <g id="more-vertical" stroke="none" stroke-width="1" fill="none" fill-rule="evenodd">
        <path d="M12.5,14 C11.6715729,14 11,13.3284271 11,12.5 C11,11.6715729 11.6715729,11 12.5,11 C13.3284271,11 14,11.6715729 14,12.5 C14,13.3284271 13.3284271,14 12.5,14 Z M12.5,6 C11.6715729,6 11,5.32842712 11,4.5 C11,3.67157288 11.6715729,3 12.5,3 C13.3284271,3 14,3.67157288 14,4.5 C14,5.32842712 13.3284271,6 12.5,6 Z M12.5,22 C11.6715729,22 11,21.3284271 11,20.5 C11,19.6715729 11.6715729,19 12.5,19 C13.3284271,19 14,19.6715729 14,20.5 C14,21.3284271 13.3284271,22 12.5,22 Z" id="Combined-Shape" fill="#000000"></path>
    </g>
</svg>
